X:731
T:Dawn, The
R:reel
H:Similar to "Twilight in Portroe", see also #42
H:Both reels are also sometimes played in G, see #732, #733
D:Dubliners: 25 Years Celebration.
Z:id:hn-reel-731
M:C|
K:A
A,2CE D2FD | E2GB AdcA | BE~E2 cE~E2 | BdcB AFEC | 
A,2CE D2FD | E2GB ABce | fece aece | dcBd cAA2 :|
|: a2ae fece | fbba geef | (3gfe be gebe | ac'ea c'eac' |
a2ae fece | dcBc defg |1 (3agf ge f2ec | dcBd cAA2 :|2 afec d2cd | ecdB cAA2 ||
P:variations
|: A,2CE D2FD | E2CE ABcA | BEcE dEcE | BdcB AFEC | 
A,2CE D2FD | E2CE ABce | fefg afed | c2Bd cAA2 :|
|: a2ga fece | fbba geef | (3gfe be gebe | ac'ea c'eac' |
a2ga fece | dcBc defg |1 a2ga faec | dcBd cAA2 :|2 a2gb afec | dcBd cAA2 ||

